X: 27925
T: Mountain Stream, The
R: barndance
M: 4/4
K: Gmajor
B|d2 de dB G2|A2 AB AG E2|D2 DG E2 EG|D2 DG EF GA|
d2 de dB G2|A2 AB AG EG|D2 DE GA Bc|dB AB G3:|
B|:d2 Bd g2 fe|d2 BG A2 GE|D2 DG E2 EG|D2 DG EF GA|
[1 d2 Bd g2 fe|d2 BG A2 GE|D2 DE GA Bc|dB AB G3 B:|
[2 d2 de dB G2|A2 AB AG EG|D2 DE GA Bc|dB AB G3||
A|:~B3 A ~G3 E|D2 BG AB GE|D2 DG E2 EG|D2 DG EF GA|
[1 ~B3 A ~G3 E|D2 BG A2 (3Bcd|~e3 f ge dB|dB AB G3 A:|
[2 d2 de dB G2|A2 AB AG EG|D2 DE GA Bc|dB AB G3||

